svg/u1fa96.svg

<svg viewBox="0 0 128 128" xmlns="http://www.w3.org/2000/svg">
  <g>
    <path d="M22.65,95.37c2.59,0.63,10.94,3.67,22.79,0.27c8.8-2.52,22-9.81,22.91-10.39 c15.63-10.04,36.02-16.2,45.27-18.62c1.13-0.3,1.73-2.43,1.44-3.59c-0.12-0.49-33.1-0.61-55.14,10.68S22.65,95.37,22.65,95.37z" fill="#4C5125"/>
    <path d="M82.43,114.18c7.34-11.24,0.54-34.92-2.25-41.06l-11.14,4.38c1.2,2.65,9.45,22.35,1.1,40.08 L82.43,114.18z" fill="#784D30"/>
    <path d="M63.19,119.45c-6.38-3.46-12.04-15.13-12.04-15.13l9.57-6.66c3.22,6.05,6.47,11.15,13,16.69 c2.42,2.05,7.52,1.65,7.52,1.65S72.99,123.27,63.19,119.45z" fill="#8D6E63"/>
    <polygon points="61.41,118.16 71.08,113.34 64.58,105.04 63.66,106.2 65.87,112.26 58.91,115.72 " fill="#784D30"/>
    <path d="M80.18,73.12c3.68,7.68,9.32,35.43,1.34,41.57 c-3.88,2.98-11.09,0.36-21.82-18.5" fill="none" stroke="#BCAAA4" stroke-width="2" stroke-miterlimit="10"/>
    <path d="M66.55,102.37l-7.1-12.7c-0.37-0.66-1.2-0.89-1.86-0.53l-12.77,7.11c-0.66,0.37-0.9,1.2-0.53,1.86 l3.55,6.35c0,0,2.36,4.23,3.55,6.35c0.37,0.66,1.2,0.89,1.85,0.53l12.77-7.11C66.68,103.86,66.92,103.03,66.55,102.37z M57.65,92.51l2.05,3.67l-9.99,5.55l-2.05-3.67L57.65,92.51z M51.15,104.32l9.99-5.55l2.05,3.67l-9.99,5.55L51.15,104.32z" fill="#90A4AE"/>
    <path d="M58.14,93.39c-3.38-5.53-7.96-12.75-7.71-14.66l-11.79-1.39c-0.55,4.03,4.48,9.8,7.57,17.81 c0.69,1.78,1.74,3.43,2.92,2.86L58.14,93.39z" fill="#8D6E63"/>
    <polygon points="45.11,92.56 53.68,88.26 52.26,84.59 43.73,89.84 " fill="#784D30"/>
    <path d="M47.22,97.12l9.36-4.75l1.08,0.12l0.49,0.9l-9.02,4.62c0,0-0.53,0.37-1.31-0.22 C47.6,97.63,47.22,97.12,47.22,97.12z" fill="#784D30"/>
    <path d="M53.2,107.98c0,0-4.18-7.49-4.21-7.54c-0.03-0.05,9.89-5.72,9.89-5.72l3.4,8.21L53.2,107.98z" fill="#8D6E63"/>
    <polygon points="63.7,105.53 65.87,112.26 55.73,115.99 53.97,110.95 " fill="#8D6E63"/>
    <path d="M54.95,91.08c-2.85-5.96-4.48-11.53-4.22-13.41l1.96,0.26c-0.22,1.62,2.46,9.45,4.97,14.62 C57.65,92.56,55.59,92.41,54.95,91.08z" fill="#BCAAA4"/>
    <path d="M61.38,103.42c0,0-2.82-5.55-3.3-6.62c-0.48-1.07,0.8-2.08,0.8-2.08l4.31,7.71L61.38,103.42z" fill="#BCAAA4"/>
    <polygon points="58.12,116.76 55.73,115.99 64.66,111.72 62.82,106.02 64.58,105.04 67.08,112.81 " fill="#BCAAA4"/>
    <path d="M117.73,57.92c-14.6-3.96-12.23-6.63-16.17-14.48C89.43,19.28,72.26,5.39,47.35,7.69 C18.88,10.31,1.68,34.15,4.25,62.08c0.66,7.15,1.96,13.04,4.59,19.61c0,0,0,0.01,0,0.01c2.66,7.57-0.94,12.03-2.57,13.62 c-1.63,1.58-3.45,4,0.15,5.27c3.99,1.41,13.27,3.93,34.07-7.84c20.96-11.87,26.58-15.54,42.37-20c13.23-3.74,32.29-5.81,38.71-7.91 C125.3,63.63,125.25,59.96,117.73,57.92z" fill="#506B3F"/>
    <linearGradient id="SVGID_1_" gradientUnits="userSpaceOnUse" x1="12.7173" x2="121.4655" y1="98.7093" y2="59.1645">
      <stop offset="0.1016" stop-color="#828E51"/>
      <stop offset="0.93" stop-color="#9B9E5A"/>
    </linearGradient>
    <path d="M120.78,59.01c0,0,2.21,1.85-0.55,3.11c-2.81,0.84-7.98,1.73-13.91,2.75 c-7.9,1.36-16.86,2.9-24.26,4.99C67.42,74,61.21,77.53,44.61,86.96c-1.74,0.99-3.59,2.04-5.59,3.17 c-10.19,5.77-18.71,8.7-25.32,8.7c-1.43,0-4.95-0.33-6.65-1.12c-1.4-0.65-0.77-2.39-0.77-2.39c-2.54,2.5-2.72,4.26,0.15,5.27 c1.53,0.54,3.83,1.24,7.27,1.24c5.53,0,13.97-1.82,26.8-9.09c20.96-11.87,26.58-15.54,42.37-20c13.23-3.74,32.29-5.81,38.71-7.91 c2.26-0.74,3.11-2.38,1.76-4.02C123.34,60.83,122.51,59.69,120.78,59.01z" fill="url(#SVGID_1_)"/>
    <path d="M13.93,52.59c3.04,1.32,3.92-2.03,4.26-3.29c1.17-4.3,3.17-12.4,14.69-20.71 c2.91-2.1,5.59-4.88,2.09-7.53c-3.05-2.31-8.04,0.17-10.45,2.02c-3.76,2.89-7.02,6.55-9.02,10.84C8.96,48,12.86,52.13,13.93,52.59z " fill="#757F40"/>
    <path d="M70.59,81.45c2.93-1.51,10.02-4.31,10.02-4.31c-0.31-1.35-1.22-3.36-1.22-3.36 c-3.43,0.8-10.35,3.71-10.35,3.71L70.59,81.45z" fill="#4E342E"/>
  </g>
</svg>

<svg viewBox="0 0 128 128" xmlns="http://www.w3.org/2000/svg">
  <defs>
    <linearGradient id="SVGID_1_" gradientUnits="userSpaceOnUse" x1="12.7173" x2="121.4655" y1="98.7093" y2="59.1645">
      <stop offset="0.1016" stop-color="#828E51"/>
      <stop offset="0.93" stop-color="#9B9E5A"/>
    </linearGradient>
  </defs>
  <path d="M22.65,95.37 C25.24,96 33.59,99.04 45.44,95.64 C54.24,93.12 67.44,85.83 68.35,85.25 C83.98,75.21 104.37,69.05 113.62,66.63 C114.75,66.33 115.35,64.2 115.06,63.04 C114.94,62.55 81.96,62.43 59.92,73.72 C37.88,85.01 22.65,95.37 22.65,95.37 Z" fill="#4C5125"/>
  <path d="M82.43,114.18 C89.77,102.94 82.97,79.26 80.18,73.12 L69.04,77.5 C70.24,80.15 78.49,99.85 70.14,117.58 L82.43,114.18 Z" fill="#784D30"/>
  <path d="M63.19,119.45 C56.81,115.99 51.15,104.32 51.15,104.32 L60.72,97.66 C63.94,103.71 67.19,108.81 73.72,114.35 C76.14,116.4 81.24,116 81.24,116 C81.24,116 72.99,123.27 63.19,119.45 Z" fill="#8D6E63"/>
  <path d="M61.41,118.16 L71.08,113.34 L64.58,105.04 L63.66,106.2 L65.87,112.26 L58.91,115.72 Z" fill="#784D30"/>
  <path d="M81.082,72.688 Q84.818,80.485 86.217,94.382 Q87.895,111.046 82.13,115.483 Q78.187,118.51 72.59,114.439 Q66.348,109.897 58.831,96.685 L60.569,95.696 Q67.873,108.533 73.767,112.821 Q78.155,116.014 80.91,113.897 Q85.794,110.14 84.228,94.583 Q82.863,81.034 79.278,73.552 Z" fill="#BCAAA4"/>
  <path d="M66.55,102.37 L59.45,89.67 C59.08,89.01 58.25,88.78 57.59,89.14 L44.82,96.25 C44.16,96.62 43.92,97.45 44.29,98.11 L47.84,104.46 C47.84,104.46 50.2,108.69 51.39,110.81 C51.76,111.47 52.59,111.7 53.24,111.34 L66.01,104.23 C66.68,103.86 66.92,103.03 66.55,102.37 Z M57.65,92.51 L59.7,96.18 L49.71,101.73 L47.66,98.06 L57.65,92.51 Z M51.15,104.32 L61.14,98.77 L63.19,102.44 L53.2,107.99 L51.15,104.32 Z" fill="#90A4AE"/>
  <path d="M58.14,93.39 C54.76,87.86 50.18,80.64 50.43,78.73 L38.64,77.34 C38.09,81.37 43.12,87.14 46.21,95.15 C46.9,96.93 47.95,98.58 49.13,98.01 L58.14,93.39 Z" fill="#8D6E63"/>
  <path d="M45.11,92.56 L53.68,88.26 L52.26,84.59 L43.73,89.84 Z" fill="#784D30"/>
  <path d="M47.22,97.12 L56.58,92.37 L57.66,92.49 L58.15,93.39 L49.13,98.01 C49.13,98.01 48.6,98.38 47.82,97.79 C47.6,97.63 47.22,97.12 47.22,97.12 Z" fill="#784D30"/>
  <path d="M53.2,107.98 C53.2,107.98 49.02,100.49 48.99,100.44 C48.96,100.39 58.88,94.72 58.88,94.72 L62.28,102.93 L53.2,107.98 Z" fill="#8D6E63"/>
  <path d="M63.7,105.53 L65.87,112.26 L55.73,115.99 L53.97,110.95 Z" fill="#8D6E63"/>
  <path d="M54.95,91.08 C52.1,85.12 50.47,79.55 50.73,77.67 L52.69,77.93 C52.47,79.55 55.15,87.38 57.66,92.55 C57.65,92.56 55.59,92.41 54.95,91.08 Z" fill="#BCAAA4"/>
  <path d="M61.38,103.42 C61.38,103.42 58.56,97.87 58.08,96.8 C57.6,95.73 58.88,94.72 58.88,94.72 L63.19,102.43 L61.38,103.42 Z" fill="#BCAAA4"/>
  <path d="M58.12,116.76 L55.73,115.99 L64.66,111.72 L62.82,106.02 L64.58,105.04 L67.08,112.81 Z" fill="#BCAAA4"/>
  <path d="M117.73,57.92 C103.13,53.96 105.5,51.29 101.56,43.44 C89.43,19.28 72.26,5.39 47.35,7.69 C18.88,10.31 1.68,34.15 4.25,62.08 C4.91,69.23 6.21,75.12 8.84,81.69 C8.84,81.69 8.84,81.7 8.84,81.7 C11.5,89.27 7.9,93.73 6.27,95.32 C4.64,96.9 2.82,99.32 6.42,100.59 C10.41,102 19.69,104.52 40.49,92.75 C61.45,80.88 67.07,77.21 82.86,72.75 C96.09,69.01 115.15,66.94 121.57,64.84 C125.3,63.63 125.25,59.96 117.73,57.92 Z" fill="#506B3F"/>
  <path d="M120.78,59.01 C120.78,59.01 122.99,60.86 120.23,62.12 C117.42,62.96 112.25,63.85 106.32,64.87 C98.42,66.23 89.46,67.77 82.06,69.86 C67.42,74 61.21,77.53 44.61,86.96 C42.87,87.95 41.02,89 39.02,90.13 C28.83,95.9 20.31,98.83 13.7,98.83 C12.27,98.83 8.75,98.5 7.05,97.71 C5.65,97.06 6.28,95.32 6.28,95.32 C3.74,97.82 3.56,99.58 6.43,100.59 C7.96,101.13 10.26,101.83 13.7,101.83 C19.23,101.83 27.67,100.01 40.5,92.74 C61.46,80.87 67.08,77.2 82.87,72.74 C96.1,69 115.16,66.93 121.58,64.83 C123.84,64.09 124.69,62.45 123.34,60.81 C123.34,60.83 122.51,59.69 120.78,59.01 Z" fill="url(#SVGID_1_)"/>
  <path d="M13.93,52.59 C16.97,53.91 17.85,50.56 18.19,49.3 C19.36,45 21.36,36.9 32.88,28.59 C35.79,26.49 38.47,23.71 34.97,21.06 C31.92,18.75 26.93,21.23 24.52,23.08 C20.76,25.97 17.5,29.63 15.5,33.92 C8.96,48 12.86,52.13 13.93,52.59 Z" fill="#757F40"/>
  <path d="M70.59,81.45 C73.52,79.94 80.61,77.14 80.61,77.14 C80.3,75.79 79.39,73.78 79.39,73.78 C75.96,74.58 69.04,77.49 69.04,77.49 L70.59,81.45 Z" fill="#4E342E"/>
</svg>
